icons/biochemistry_laboratory_fill.svg

<svg width="48" height="48" viewBox="0 0 48 48" fill="none" xmlns="http://www.w3.org/2000/svg">
<path fill-rule="evenodd" clip-rule="evenodd" d="M9 6C7.34315 6 6 7.34315 6 9V39C6 40.6569 7.34315 42 9 42H39C40.6569 42 42 40.6569 42 39V9C42 7.34315 40.6569 6 39 6H9ZM36 11C36 13.6889 34.2819 15.1583 32 16.6785C30.743 15.841 29.657 15.019 28.9351 14H33C33.5523 14 34 13.5523 34 13C34 12.4477 33.5523 12 33 12H28.0864C28.0297 11.6858 28 11.3534 28 11H26C26 14.411 28.0774 16.3814 30.1876 17.8651C29.3567 18.4227 28.5312 19.0276 27.8496 19.7206C26.7781 20.81 26 22.1741 26 24C26 25.8259 26.7781 27.19 27.8496 28.2794C28.5312 28.9724 29.3567 29.5773 30.1876 30.1349C28.0774 31.6186 26 33.589 26 37H28C28 34.3111 29.7181 32.8418 32 31.3215C33.257 32.159 34.343 32.981 35.0649 34H31C30.4477 34 30 34.4477 30 35C30 35.5523 30.4477 36 31 36H35.9136C35.9703 36.3142 36 36.6466 36 37H38C38 33.589 35.9226 31.6186 33.8124 30.1349C34.6433 29.5773 35.4688 28.9724 36.1504 28.2794C37.2219 27.19 38 25.8259 38 24C38 22.1741 37.2219 20.81 36.1504 19.7206C35.4688 19.0276 34.6433 18.4227 33.8124 17.8651C35.9226 16.3814 38 14.411 38 11H36ZM29.3995 21C30.1035 20.318 30.9957 19.7203 32 19.0672C33.0043 19.7203 33.8965 20.318 34.6005 21H29.3995ZM28.1277 23C28.0439 23.3107 28 23.6419 28 24C28 24.3581 28.0439 24.6893 28.1277 25H35.8723C35.9561 24.6893 36 24.3581 36 24C36 23.6419 35.9561 23.3107 35.8723 23H28.1277ZM32 28.9328C30.9957 28.2797 30.1035 27.682 29.3995 27H34.6005C33.8965 27.682 33.0043 28.2797 32 28.9328ZM13 17C13 16.4477 13.4477 16 14 16H21C21.5523 16 22 16.4477 22 17V19C22 19.5523 21.5523 20 21 20H20V24.0476L24.2311 30.898C25.8771 33.5629 23.9602 37 20.8279 37H14.1721C11.0398 37 9.1229 33.5629 10.7689 30.898L15 24.0476V20H14C13.4477 20 13 19.5523 13 19V17Z" fill="black"/>
</svg>

<svg
  xmlns="http://www.w3.org/2000/svg"
  width="24"
  height="24"
  viewBox="0 0 24 24"
  fill="none"
  stroke="currentColor"
  stroke-width="2"
  stroke-linecap="round"
  stroke-linejoin="round"
>
  <path
    fill-rule="evenodd"
    d="M9 6a3 3 0 0 0-3 3v30a3 3 0 0 0 3 3h30a3 3 0 0 0 3-3V9a3 3 0 0 0-3-3zm27 5c0 2.689-1.718 4.158-4 5.679-1.257-.838-2.343-1.66-3.065-2.679H33a1 1 0 1 0 0-2h-4.914A5.6 5.6 0 0 1 28 11h-2c0 3.411 2.077 5.381 4.188 6.865-.831.558-1.657 1.163-2.338 1.856C26.778 20.81 26 22.174 26 24s.778 3.19 1.85 4.28c.681.692 1.507 1.297 2.338 1.855C28.078 31.619 26 33.589 26 37h2c0-2.689 1.718-4.158 4-5.678 1.257.837 2.343 1.659 3.065 2.678H31a1 1 0 1 0 0 2h4.914q.085.47.086 1h2c0-3.411-2.077-5.381-4.188-6.865.831-.558 1.657-1.163 2.338-1.856C37.222 27.19 38 25.826 38 24s-.778-3.19-1.85-4.28c-.681-.692-1.507-1.297-2.338-1.855C35.922 16.381 38 14.411 38 11zm-6.6 10c.704-.682 1.596-1.28 2.6-1.933 1.004.653 1.897 1.251 2.6 1.933zm-1.272 2Q28 23.464 28 24q.001.536.128 1h7.744q.127-.464.128-1-.001-.536-.128-1zM32 28.933c-1.004-.653-1.896-1.251-2.6-1.933h5.2c-.703.682-1.596 1.28-2.6 1.933M13 17a1 1 0 0 1 1-1h7a1 1 0 0 1 1 1v2a1 1 0 0 1-1 1h-1v4.048l4.231 6.85c1.646 2.665-.27 6.102-3.403 6.102h-6.656c-3.132 0-5.05-3.437-3.403-6.102L15 24.048V20h-1a1 1 0 0 1-1-1z"
    clip-rule="evenodd"
  />
</svg>
